X:27
T:White Cockade
S:John Moore's Book 1
Z:Transcribed by Paul Barber-Riley  April 2016
M:C|
L:1/8
K:G
%%VWML: Moore1-4493-p17-0
F:http://www.vwml.org/record/Moore1/4493/p17
GA|B2B2cBAG|c2A2A2GA|B2B2cBAG|E2A2A2GA|
B2B2cBAG|B2d2g3a|b2a2g2 (g/f/e)|d2(B2B2:|
(d/e/f)|g2d2g2d2|g2(d2d2)cB|~c3d efge|a2A2A2GA|
B2B2cBAG|B2d2g3a|b2a2g2(g/f/e)|d2(B2B2)|]
